svgs/duotone/engine-warning.svg

<svg xmlns="http://www.w3.org/2000/svg" viewBox="0 0 640 512"><!--! Font Awesome Pro 6.6.0 by @fontawesome - https://fontawesome.com License - https://fontawesome.com/license (Commercial License) Copyright 2024 Fonticons, Inc. --><defs><style>.fa-secondary{opacity:.4}</style></defs><path class="fa-secondary" d="M0 160L0 352c0 13.3 10.7 24 24 24s24-10.7 24-24l0-72 48 0 0-48-48 0 0-72c0-13.3-10.7-24-24-24s-24 10.7-24 24zM184 88c0 13.3 10.7 24 24 24l72 0 0 32 48 0 0-32 72 0c13.3 0 24-10.7 24-24s-10.7-24-24-24L208 64c-13.3 0-24 10.7-24 24zM544 224l0 192c0 17.7 14.3 32 32 32l32 0c17.7 0 32-14.3 32-32l0-192c0-17.7-14.3-32-32-32l-32 0c-17.7 0-32 14.3-32 32z"/><path class="fa-primary" d="M128 144c-17.7 0-32 14.3-32 32l0 176c0 17.7 14.3 32 32 32l44.8 0 32 40c12.1 15.2 30.5 24 50 24L448 448c35.3 0 64-28.7 64-64l0-145.2c0-19.4-8.8-37.8-24-50L449.5 158c-11.3-9.1-25.4-14-40-14L208 144l-48 0-32 0zm196 64l0 88c0 11-9 20-20 20s-20-9-20-20l0-88c0-11 9-20 20-20s20 9 20 20zM304 344a24 24 0 1 1 0 48 24 24 0 1 1 0-48z"/></svg>

<svg xmlns="http://www.w3.org/2000/svg" viewBox="0 0 640 512"><!--! Font Awesome Pro 6.4.0 by @fontawesome - https://fontawesome.com License - https://fontawesome.com/license (Commercial License) Copyright 2023 Fonticons, Inc. --><defs><style>.fa-secondary{opacity:.4}</style></defs><path class="fa-primary" d="M128 144c-17.7 0-32 14.3-32 32V352c0 17.7 14.3 32 32 32h44.8l32 40c12.1 15.2 30.5 24 50 24H448c35.3 0 64-28.7 64-64V238.8c0-19.4-8.8-37.8-24-50L449.5 158c-11.3-9.1-25.4-14-40-14H208 160 128zm196 64v88c0 11-9 20-20 20s-20-9-20-20V208c0-11 9-20 20-20s20 9 20 20zM304 344a24 24 0 1 1 0 48 24 24 0 1 1 0-48z"/><path class="fa-secondary" d="M424 88c0-13.3-10.7-24-24-24H208c-13.3 0-24 10.7-24 24s10.7 24 24 24l72 0v32h48V112l72 0c13.3 0 24-10.7 24-24zM24 136c-13.3 0-24 10.7-24 24V352c0 13.3 10.7 24 24 24s24-10.7 24-24V280H96V232H48V160c0-13.3-10.7-24-24-24zm552 56c-17.7 0-32 14.3-32 32V416c0 17.7 14.3 32 32 32h32c17.7 0 32-14.3 32-32V224c0-17.7-14.3-32-32-32H576z"/></svg>
